X: 1485
T: Good Morning to Your Night Cap   #2
T: ball ua \.dia air do \.biread-oi\.d\.ce.
R: reel
%S: s:2 b:13(7+6)
O: McFadden
B: O'Neill's of Ireland" 1850 #1485
Z: transcribed by John B. Walsh, 8/22/96
Z: Compacted via repeats and multiple endings [JC]
M: C|
L: 1/8
K: Am
|: A2(Ac) BGGB | cBcd ((3e^fg) (dB) | A2(Ac) BGGB | cABG [1 ((3E^FG) D2 :|[2 (EA)A2 |] efec dedB | cBcd eaag |
| ((3e^fg) (ec) dedB | cABG ((3E^FG) D2 || e2(ec) dedB | {d}cBcd e^f{a}ge | aged ((3e^fg) (dB) | cABG (EA)A2 |]
